src/images/user2.svg

<svg width="170" height="169" viewBox="0 0 170 169" xmlns="http://www.w3.org/2000/svg"><title>Imported Layers</title><g fill="none" fill-rule="evenodd"><path d="M107.381 118.025a45.662 45.662 0 0 1-22.529 5.915 45.673 45.673 0 0 1-22.172-5.71 51.558 51.558 0 0 0-17.297 13.762c10.97 8.643 24.814 13.8 39.864 13.8 15.049 0 28.894-5.157 39.863-13.8a51.543 51.543 0 0 0-17.729-13.967" fill="#E7EBEB"/><path d="M85.247.255C38.735.255.894 38.095.894 84.607c0 42.517 31.626 77.768 72.585 83.513 3.553.542 7.179.839 10.887.839.163 0 .325-.009.488-.01.132.001.261.01.393.01 46.511 0 84.352-37.84 84.352-84.352S131.758.255 85.247.255zM59.024 72.811c10.06 0 19.404-4.035 26.223-11.199 6.818 7.164 16.162 11.199 26.222 11.199 5.318 0 10.52-1.167 15.283-3.382.578 2.785.884 5.669.884 8.623 0 23.373-19.016 42.388-42.389 42.388-23.374 0-42.389-19.015-42.389-42.388 0-2.954.306-5.838.884-8.623a36.206 36.206 0 0 0 15.282 3.382zM45.769 62.645C51.427 48.197 64.786 37.584 80.776 35.9l.387-.037c.525-.05 1.053-.09 1.583-.121.173-.01.345-.021.519-.029.657-.03 1.317-.05 1.982-.05.664 0 1.324.02 1.981.05.174.008.346.019.519.029a43.478 43.478 0 0 1 1.97.158c15.99 1.684 29.349 12.297 35.008 26.745a29.225 29.225 0 0 1-13.256 3.166c-9.295 0-17.833-4.269-23.424-11.711l-2.798-3.724-2.799 3.725c-5.591 7.441-14.128 11.71-23.424 11.71a29.217 29.217 0 0 1-13.255-3.166zm81.867 40.719v25.912a54.764 54.764 0 0 0-13.146-11.455 49.762 49.762 0 0 0 13.146-14.457zm-71.343 14.663a55.686 55.686 0 0 0-13.435 11.872v-26.535a49.768 49.768 0 0 0 13.435 14.663zm6.779 4.135a49.075 49.075 0 0 0 22.175 5.278 49.06 49.06 0 0 0 22.492-5.441 47.713 47.713 0 0 1 19.897 19.75v.036h.019a47.792 47.792 0 0 1 2.417 5.235c-13.181 9.685-28.748 14.827-45.207 14.929-16.477-.08-31.742-5.348-44.269-14.238 4.139-11.118 12.296-20.123 22.476-25.549zm72.885 20.78a57.51 57.51 0 0 0-1.321-2.897V78.367h-.008c0-.105.008-.209.008-.315 0-4.235-.537-8.346-1.544-12.271l.071-.045-.81-2.566c-5.746-18.207-21.157-31.137-39.578-33.934l-.065-.009a49.569 49.569 0 0 0-4.498-.467c-.21-.013-.418-.028-.628-.038a50.378 50.378 0 0 0-2.337-.059c-.784 0-1.562.023-2.338.059-.21.01-.418.025-.628.038a50.122 50.122 0 0 0-4.498.467c-.021.003-.043.005-.064.009C59.297 32.033 43.887 44.963 38.14 63.17l-.81 2.566.072.046a49.304 49.304 0 0 0-1.544 12.27c0 .106.007.21.008.315h-.008v62.571a53.232 53.232 0 0 0-1.011 2.274C18.363 129.016 7.894 108.017 7.894 84.607c0-42.652 34.701-77.352 77.353-77.352 42.651 0 77.352 34.7 77.352 77.352 0 23.262-10.337 44.143-26.642 58.335z" fill="#D6D8D8"/></g></svg>

<?xml version="1.0" encoding="UTF-8" standalone="no"?>
<svg width="170px" height="169px" viewBox="0 0 170 169" version="1.1" xmlns="http://www.w3.org/2000/svg" xmlns:xlink="http://www.w3.org/1999/xlink" xmlns:sketch="http://www.bohemiancoding.com/sketch/ns">
    <!-- Generator: Sketch 3.3.2 (12043) - http://www.bohemiancoding.com/sketch -->
    <title>Imported Layers</title>
    <desc>Created with Sketch.</desc>
    <defs></defs>
    <g id="Page-1" stroke="none" stroke-width="1" fill="none" fill-rule="evenodd" sketch:type="MSPage">
        <g id="Imported-Layers" sketch:type="MSLayerGroup">
            <path d="M107.381,118.025 C100.724,121.785 93.042,123.94 84.852,123.94 C76.809,123.94 69.253,121.865 62.68,118.23 C55.958,121.524 50.06,126.241 45.383,131.992 C56.353,140.635 70.197,145.792 85.247,145.792 C100.296,145.792 114.141,140.635 125.11,131.992 C120.334,126.118 114.281,121.327 107.381,118.025" id="Fill-1" fill="#E7EBEB" sketch:type="MSShapeGroup"></path>
            <path d="M85.247,0.255 C38.735,0.255 0.894,38.095 0.894,84.607 C0.894,127.124 32.52,162.375 73.479,168.12 C77.032,168.662 80.658,168.959 84.366,168.959 C84.529,168.959 84.691,168.95 84.854,168.949 C84.986,168.95 85.115,168.959 85.247,168.959 C131.758,168.959 169.599,131.119 169.599,84.607 C169.599,38.095 131.758,0.255 85.247,0.255 L85.247,0.255 Z M59.024,72.811 C69.084,72.811 78.428,68.776 85.247,61.612 C92.065,68.776 101.409,72.811 111.469,72.811 C116.787,72.811 121.989,71.644 126.752,69.429 C127.33,72.214 127.636,75.098 127.636,78.052 C127.636,101.425 108.62,120.44 85.247,120.44 C61.873,120.44 42.858,101.425 42.858,78.052 C42.858,75.098 43.164,72.214 43.742,69.429 C48.505,71.644 53.707,72.811 59.024,72.811 L59.024,72.811 Z M45.769,62.645 C51.427,48.197 64.786,37.584 80.776,35.9 C80.905,35.887 81.034,35.875 81.163,35.863 C81.688,35.813 82.216,35.773 82.746,35.742 C82.919,35.732 83.091,35.721 83.265,35.713 C83.922,35.683 84.582,35.663 85.247,35.663 C85.911,35.663 86.571,35.683 87.228,35.713 C87.402,35.721 87.574,35.732 87.747,35.742 C88.277,35.773 88.805,35.813 89.33,35.863 C89.459,35.875 89.588,35.887 89.717,35.9 C105.707,37.584 119.066,48.197 124.725,62.645 C120.638,64.722 116.107,65.811 111.469,65.811 C102.174,65.811 93.636,61.542 88.045,54.1 L85.247,50.376 L82.448,54.101 C76.857,61.542 68.32,65.811 59.024,65.811 C54.386,65.811 49.855,64.722 45.769,62.645 L45.769,62.645 Z M127.636,103.364 L127.636,129.276 C123.882,124.764 119.439,120.904 114.49,117.821 C119.771,113.928 124.251,109.011 127.636,103.364 L127.636,103.364 Z M56.293,118.027 C51.218,121.228 46.666,125.233 42.858,129.899 L42.858,103.364 C46.304,109.113 50.888,114.101 56.293,118.027 L56.293,118.027 Z M63.072,122.162 C69.745,125.53 77.275,127.44 85.247,127.44 C93.345,127.44 100.988,125.469 107.739,121.999 C116.106,126.391 123.076,133.225 127.636,141.749 L127.636,141.785 L127.655,141.785 C128.554,143.468 129.37,145.21 130.072,147.02 C116.891,156.705 101.324,161.847 84.865,161.949 C68.388,161.869 53.123,156.601 40.596,147.711 C44.735,136.593 52.892,127.588 63.072,122.162 L63.072,122.162 Z M135.957,142.942 C135.54,141.962 135.103,140.993 134.636,140.045 L134.636,78.367 L134.628,78.367 C134.628,78.262 134.636,78.158 134.636,78.052 C134.636,73.817 134.099,69.706 133.092,65.781 L133.163,65.736 L132.353,63.17 C126.607,44.963 111.196,32.033 92.775,29.236 C92.753,29.232 92.732,29.23 92.71,29.227 C91.995,29.119 91.274,29.028 90.55,28.951 C90.365,28.932 90.179,28.913 89.994,28.896 C89.402,28.84 88.808,28.795 88.212,28.76 C88.002,28.747 87.794,28.732 87.584,28.722 C86.808,28.686 86.03,28.663 85.247,28.663 C84.463,28.663 83.685,28.686 82.909,28.722 C82.699,28.732 82.491,28.747 82.281,28.76 C81.685,28.795 81.091,28.84 80.499,28.896 C80.314,28.913 80.129,28.932 79.944,28.951 C79.219,29.028 78.499,29.119 77.783,29.227 C77.762,29.23 77.74,29.232 77.719,29.236 C59.297,32.033 43.887,44.963 38.14,63.17 L37.33,65.736 L37.402,65.782 C36.395,69.706 35.858,73.817 35.858,78.052 C35.858,78.158 35.865,78.262 35.866,78.367 L35.858,78.367 L35.858,140.938 C35.502,141.685 35.169,142.446 34.847,143.212 C18.363,129.016 7.894,108.017 7.894,84.607 C7.894,41.955 42.595,7.255 85.247,7.255 C127.898,7.255 162.599,41.955 162.599,84.607 C162.599,107.869 152.262,128.75 135.957,142.942 L135.957,142.942 Z" id="Fill-2" fill="#D6D8D8" sketch:type="MSShapeGroup"></path>
        </g>
    </g>
</svg>
